X:1
T:Title
%%score ( 1 2 ) ( 3 4 )
L:1/8
Q:1/4=80
M:2/4
K:G
V:1 treble nm="Grand Piano, Soprano"
V:2 treble 
V:3 bass nm="Choir Pad, Tell It All to Jesus"
V:4 bass 
V:1
 D/D/ [B,D]2 [B,B] | [B,B][CB] [CA][CE] | [CG][CG] [CF][CA] | [CF][_B,E]/[=B,D]/- [B,D]2 | %4
w: By~Keith~L.~Brooks * * *||||
 z/ [B,D]/[DG] [DG][EG] | z4 | z A3- | A4 | [EA]/[EB]/[Ec] [Ec][^DB] | [FA][FA]/[EG]/- [EG][B,E] | %10
w: ||||||
 [B,E][EA] [EA][EB] | z .d z2 | F[EG]/[EG]/- [EG][^CF] | [^CE][=CD] [B,D][CF] | %14
w: ||||
 [B,G] [^CA]2 [=CB]- | [CB] [DB]3- | [DB]4 |] %17
w: |||
V:2
 x4 | x4 | x4 | x4 | x4 | [DG][^CG] [CE][CA]- | [CA]/[^CB]/ D2 C | E D3 | x4 | x4 | x4 | %11
 EE/-[Ec]/- [Ec]E | x4 | x4 | x4 | x4 | x4 |] %17
V:3
 D,/D,/ [G,,G,]2 [G,,D,] | [G,,^D,][G,,E,] [A,,E,][A,,A,] | [E,A,][D,A,] [D,A,][D,F,] | %3
 [D,A,]G,/-[D,G,]/- [D,G,]2 | z/ [G,,G,]/[G,B,] [G,B,][E,B,] | z4 | z2 z E, | z4 | %8
 [C,A,]/[B,,^G,]/[A,,A,] [A,,A,][B,,F,] | [^D,B,]B,/-[E,B,]/- [E,B,][E,G,] | %10
 [^D,^G,][C,A,] [C,E,][B,,G,] | [E,^G,] [A,,A,]2 [A,C]- | [A,C][E,B,]/[E,B,]/- [E,B,][A,,A,] | %13
 [A,,G,][D,F,] [G,,G,][^D,A,] | [E,G,] [A,,G,]2 [D,F,]- | [D,F,] [G,,G,]3- | [G,,G,]4 |] %17
V:4
 x4 | x4 | x4 | z .^C, z2 | x4 | [E,B,][A,,A,] [A,,G,][A,,E,]- | [A,,E,]/[A,,G,]/ [D,F,]2 G,- | %7
 [A,,G,] [D,F,]3 | x4 | z .^D, z2 | x4 | x4 | x4 | x4 | x4 | x4 | x4 |] %17

